svgs/duotone/money-check.svg

<svg xmlns="http://www.w3.org/2000/svg" viewBox="0 0 576 512"><!--! Font Awesome Pro 6.4.2 by @fontawesome - https://fontawesome.com License - https://fontawesome.com/license (Commercial License) Copyright 2023 Fonticons, Inc. --><path class="fa-primary" style="fill:var(--fa-primary-color,inherit);opacity:var(--fa-primary-opacity,1);" d="M408 160c-13.3 0-24 10.7-24 24v48c0 13.3 10.7 24 24 24h48c13.3 0 24-10.7 24-24V184c0-13.3-10.7-24-24-24H408zM112 224c-8.8 0-16 7.2-16 16s7.2 16 16 16H304c8.8 0 16-7.2 16-16s-7.2-16-16-16H112z"/><path class="fa-secondary" style="fill:var(--fa-secondary-color,inherit);opacity:var(--fa-secondary-opacity,.4);" d="M64 64C28.7 64 0 92.7 0 128V384c0 35.3 28.7 64 64 64H512c35.3 0 64-28.7 64-64V128c0-35.3-28.7-64-64-64H64zm48 160H304c8.8 0 16 7.2 16 16s-7.2 16-16 16H112c-8.8 0-16-7.2-16-16s7.2-16 16-16zM96 336c0-8.8 7.2-16 16-16H464c8.8 0 16 7.2 16 16s-7.2 16-16 16H112c-8.8 0-16-7.2-16-16zM408 160h48c13.3 0 24 10.7 24 24v48c0 13.3-10.7 24-24 24H408c-13.3 0-24-10.7-24-24V184c0-13.3 10.7-24 24-24z"/></svg>

<svg xmlns="http://www.w3.org/2000/svg" viewBox="0 0 576 512"><!--! Font Awesome Pro 6.1.1 by @fontawesome - https://fontawesome.com License - https://fontawesome.com/license (Commercial License) Copyright 2022 Fonticons, Inc. --><defs><style>.fa-secondary{opacity:.4}</style></defs><path class="fa-primary" d="M456 160C469.3 160 480 170.7 480 184V232C480 245.3 469.3 256 456 256H408C394.7 256 384 245.3 384 232V184C384 170.7 394.7 160 408 160H456zM304 224C312.8 224 320 231.2 320 240C320 248.8 312.8 256 304 256H112C103.2 256 96 248.8 96 240C96 231.2 103.2 224 112 224H304z"/><path class="fa-secondary" d="M512 64C547.3 64 576 92.65 576 128V384C576 419.3 547.3 448 512 448H64C28.65 448 0 419.3 0 384V128C0 92.65 28.65 64 64 64H512zM112 224C103.2 224 96 231.2 96 240C96 248.8 103.2 256 112 256H304C312.8 256 320 248.8 320 240C320 231.2 312.8 224 304 224H112zM112 352H464C472.8 352 480 344.8 480 336C480 327.2 472.8 320 464 320H112C103.2 320 96 327.2 96 336C96 344.8 103.2 352 112 352zM408 160C394.7 160 384 170.7 384 184V232C384 245.3 394.7 256 408 256H456C469.3 256 480 245.3 480 232V184C480 170.7 469.3 160 456 160H408z"/></svg>
